public/svgs/thin/message-text.svg

<svg xmlns="http://www.w3.org/2000/svg" viewBox="0 0 512 512"><!-- Font Awesome Pro 6.0.0-alpha2 by @fontawesome - https://fontawesome.com License - https://fontawesome.com/license (Commercial License) --><path d="M448 -0.002H64C28.75 -0.002 0 28.746 0 63.992V351.969C0 387.217 28.75 415.965 64 415.965H160V499.957C160 507.029 165.92 511.998 172.178 511.998C174.547 511.998 176.963 511.285 179.125 509.707L304 415.965H448C483.25 415.965 512 387.217 512 351.969V63.992C512 28.746 483.25 -0.002 448 -0.002ZM496 351.969C496 378.434 474.467 399.965 448 399.965H298.662L294.395 403.17L176 492.051V399.965H64C37.533 399.965 16 378.434 16 351.969V63.992C16 37.527 37.533 15.996 64 15.996H448C474.467 15.996 496 37.527 496 63.992V351.969ZM344 143.998H168C163.594 143.998 160 147.592 160 151.998S163.594 159.998 168 159.998H248V295.998C248 300.404 251.594 303.998 256 303.998S264 300.404 264 295.998V159.998H344C348.406 159.998 352 156.404 352 151.998S348.406 143.998 344 143.998Z"/></svg>

<svg xmlns="http://www.w3.org/2000/svg" viewBox="0 0 512 512"><!--! Font Awesome Pro 6.5.1 by @fontawesome - https://fontawesome.com License - https://fontawesome.com/license (Commercial License) Copyright 2023 Fonticons, Inc. --><path d="M176 416c0-8.8-7.2-16-16-16H64c-26.5 0-48-21.5-48-48V64c0-26.5 21.5-48 48-48H448c26.5 0 48 21.5 48 48V352c0 26.5-21.5 48-48 48H309.3c-3.5 0-6.8 1.1-9.6 3.2L176 496V416zM64 0C28.7 0 0 28.7 0 64V352c0 35.3 28.7 64 64 64h80 16v16 64c0 6.1 3.4 11.6 8.8 14.3s11.9 2.1 16.8-1.5L309.3 416H448c35.3 0 64-28.7 64-64V64c0-35.3-28.7-64-64-64H64zM168 144c-4.4 0-8 3.6-8 8s3.6 8 8 8h80V296c0 4.4 3.6 8 8 8s8-3.6 8-8V160h80c4.4 0 8-3.6 8-8s-3.6-8-8-8H256 168z"/></svg>
